contributed-vectors/screen_dimmer.svg

<svg xmlns="http://www.w3.org/2000/svg" width="256" height="256" style="isolation:isolate" viewBox="0 0 192 192"><defs><clipPath id="a"><path d="M0 0h192v192H0z"/></clipPath></defs><g clip-path="url(#a)" style="isolation:isolate"><circle cx="96" cy="96" r="88" fill="#73ADA4" vector-effect="non-scaling-stroke"/><path fill="#FFF" d="M122.172 85.172V69.828h-15.344L96 59 85.172 69.828H69.828v15.344L59 96l10.828 10.828v15.344h15.344L96 133l10.828-10.828h15.344v-15.344L133 96l-10.828-10.828ZM96 115.629a19.55 19.55 0 0 1-8.179-1.8c6.74-3.108 11.45-9.912 11.45-17.829s-4.71-14.721-11.45-17.829a19.55 19.55 0 0 1 8.179-1.8c10.828 0 19.629 8.801 19.629 19.629 0 10.828-8.801 19.629-19.629 19.629Z"/></g></svg>

<?xml version="1.0" encoding="UTF-8" standalone="no"?><!-- Generator: Gravit.io --><svg xmlns="http://www.w3.org/2000/svg" xmlns:xlink="http://www.w3.org/1999/xlink" style="isolation:isolate" viewBox="0 0 192 192" width="192pt" height="192pt"><defs><clipPath id="_clipPath_Mqk7SLYpyUHitbJcmIY4nY29gCCYmAun"><rect width="192" height="192"/></clipPath></defs><g clip-path="url(#_clipPath_Mqk7SLYpyUHitbJcmIY4nY29gCCYmAun)"><g style="isolation:isolate"><circle vector-effect="non-scaling-stroke" cx="96" cy="96" r="88" fill="rgb(115,173,164)"/><path d=" M 122.172 85.172 L 122.172 69.828 L 106.828 69.828 L 96 59 L 85.172 69.828 L 69.828 69.828 L 69.828 85.172 L 59 96 L 69.828 106.828 L 69.828 122.172 L 85.172 122.172 L 96 133 L 106.828 122.172 L 122.172 122.172 L 122.172 106.828 L 133 96 L 122.172 85.172 Z  M 96 115.629 C 93.088 115.629 90.308 114.974 87.821 113.829 C 94.561 110.721 99.271 103.917 99.271 96 C 99.271 88.083 94.561 81.279 87.821 78.171 C 90.308 77.026 93.088 76.371 96 76.371 C 106.828 76.371 115.629 85.172 115.629 96 C 115.629 106.828 106.828 115.629 96 115.629 Z " fill="rgb(255,255,255)"/></g></g></svg>
